WordPressTheme/assets/images/common/sub-information-icon2.svg

<svg width="61" height="55" viewBox="0 0 61 55" fill="none" xmlns="http://www.w3.org/2000/svg">
<path d="M60.0541 33.2302C57.4859 33.8711 54.795 33.8305 52.2473 33.1126C52.6608 31.8562 52.8967 30.5482 52.9481 29.2266C53.1208 24.5631 51.0234 20.714 46.8825 18.0952C44.9507 16.8879 42.8228 16.0276 40.5947 15.5533C39.4088 15.2965 38.2433 15.1207 37.3419 15.0065C37.536 14.2632 37.7791 13.5335 38.0697 12.8223C38.1183 12.7113 38.1335 12.5885 38.1135 12.469C38.0934 12.3495 38.039 12.2384 37.9567 12.1494C37.8745 12.0603 37.7682 11.9972 37.6506 11.9676C37.5331 11.9381 37.4095 11.9435 37.295 11.9831C34.312 13.0239 31.6826 14.8838 29.7077 17.3498C27.2393 17.6312 25.3176 18.6283 24.1489 20.2367C24.1443 20.2431 24.1391 20.2506 24.1346 20.2572C24.0125 20.4397 21.3069 24.3893 16.5834 23.9123C18.156 22.4485 21.005 19.2183 21.713 14.5048C22.6477 8.28574 20.9594 3.79125 19.8844 1.68408C21.8907 2.37838 25.5781 4.36788 27.2142 9.8385C27.2808 10.0881 28.0325 12.6809 30.9481 14.4192C31.0901 14.5038 31.2598 14.5285 31.4201 14.488C31.5803 14.4474 31.7179 14.3449 31.8025 14.2029C31.8871 14.0609 31.9119 13.8912 31.8713 13.7309C31.8308 13.5707 31.7282 13.4332 31.5863 13.3485C29.0477 11.8354 28.424 9.53851 28.4186 9.51795C28.4166 9.50942 28.4142 9.50071 28.4116 9.49219C25.8859 1.02962 18.9598 0.128722 18.6661 0.0949987C18.5461 0.0811399 18.4246 0.102438 18.3165 0.156304C18.2084 0.210171 18.1182 0.294286 18.057 0.398426C17.9958 0.502565 17.9661 0.622245 17.9717 0.742918C17.9772 0.863591 18.0177 0.98006 18.0881 1.07817C18.1252 1.12875 21.6971 6.22249 20.4805 14.32C19.5892 20.2509 14.8514 23.7515 14.8043 23.7863C14.7083 23.8557 14.634 23.951 14.5902 24.0611C14.5464 24.1712 14.5348 24.2914 14.557 24.4078C14.5791 24.5242 14.6339 24.6319 14.715 24.7183C14.7962 24.8046 14.9002 24.866 15.015 24.8953C15.7734 25.0923 16.5536 25.1931 17.3371 25.1955C22.1327 25.1955 24.9599 21.2545 25.161 20.9645C25.937 19.8987 27.1012 19.1755 28.6286 18.8032C27.2225 20.9078 26.1744 23.2307 25.5269 25.6776C25.2774 26.6835 24.8562 27.6387 24.2818 28.5013C23.8967 29.0793 23.4365 29.6035 22.9132 30.0602C19.4201 30.0682 15.9305 29.8381 12.4687 29.3715C12.4598 29.3701 12.4509 29.369 12.442 29.3681C3.67762 28.4341 0.386613 33.1064 0.250793 33.3058C0.197633 33.3838 0.162888 33.4729 0.149182 33.5663C0.135476 33.6597 0.143166 33.755 0.171672 33.845C1.15909 36.9631 2.76025 39.8521 4.88092 42.3421C7.15003 46.3161 11.5239 49.4879 14.8036 51.4528C18.4826 53.6567 23.7748 54.9094 27.0123 54.9094C30.7604 54.9007 34.454 54.0111 37.7951 52.3124C38.9893 53.1143 41.0496 54.0673 44.1044 54.0673C45.4889 54.0571 46.8673 53.8829 48.2108 53.5485C48.3262 53.5204 48.4311 53.4599 48.5132 53.3743C48.5954 53.2887 48.6515 53.1814 48.6748 53.065C48.6982 52.9487 48.6878 52.828 48.645 52.7173C48.6022 52.6066 48.5288 52.5104 48.4332 52.44C48.4184 52.4291 46.9373 51.3218 45.7348 49.1008C45.6959 49.0288 45.6431 48.9651 45.5796 48.9135C45.5161 48.8618 45.443 48.8232 45.3646 48.7998C45.2861 48.7764 45.2038 48.7687 45.1224 48.7771C45.041 48.7855 44.962 48.8099 44.89 48.8489C44.818 48.8878 44.7544 48.9406 44.7027 49.0041C44.6511 49.0677 44.6125 49.1408 44.5892 49.2192C44.5658 49.2977 44.5582 49.38 44.5667 49.4614C44.5751 49.5428 44.5996 49.6218 44.6386 49.6938C45.2052 50.7471 45.9125 51.7185 46.7409 52.5812C43.035 53.2268 40.5447 52.4458 39.0697 51.6307C44.0608 48.7921 47.3685 44.8569 48.7606 42.9823C48.9998 42.9949 49.2435 43.0024 49.4918 43.0024C51.0623 43.0168 52.6192 42.7109 54.0674 42.1034C57.1394 40.7856 59.4119 38.0695 60.8214 34.0307C60.8592 33.9221 60.8662 33.8052 60.8417 33.6929C60.8173 33.5806 60.7622 33.4772 60.6826 33.3942C60.6031 33.3113 60.5021 33.2519 60.391 33.2227C60.2798 33.1935 60.1627 33.1956 60.0526 33.2287L60.0541 33.2302ZM27.0113 53.6635C24.5812 53.6635 18.9347 52.4751 15.4442 50.3838C12.3959 48.5576 8.37186 45.6625 6.17946 42.0912C7.28474 41.1927 11.1111 38.8033 17.3981 42.2746C17.5374 42.3487 20.8664 44.109 25.8583 44.9488C30.4135 45.715 37.2399 45.8061 44.0375 41.9672C45.0922 42.3745 46.1884 42.6653 47.3064 42.8342C44.6562 46.2067 37.5946 53.6635 27.0113 53.6635ZM53.5859 40.9559C49.1533 42.8633 44.3011 40.7291 44.2526 40.7072C44.1625 40.6657 44.0636 40.6467 43.9646 40.6518C43.8655 40.6569 43.7691 40.686 43.6837 40.7365C37.1338 44.5382 30.5106 44.4609 26.1078 43.7269C21.3061 42.9265 18.0185 41.1931 17.9934 41.1797C13.6598 38.787 10.3593 38.9944 8.35278 39.5895C7.29763 39.8963 6.3111 40.4026 5.44663 41.0809C3.70525 38.8956 2.3566 36.4245 1.46076 33.7778C2.21176 32.8924 5.32489 29.8657 12.2969 30.605C12.8565 30.6885 22.1626 32.0384 30.0261 30.7825C30.1873 30.7542 30.3308 30.6636 30.4258 30.5304C30.5208 30.3971 30.5596 30.2318 30.5338 30.0702C30.508 29.9086 30.4197 29.7637 30.2879 29.6666C30.1561 29.5696 29.9915 29.5283 29.8295 29.5516C28.1282 29.8124 26.4126 29.9698 24.6922 30.023C24.9134 29.7594 25.1209 29.4845 25.3137 29.1995C25.9684 28.2184 26.4489 27.1316 26.7341 25.9871C27.2984 23.7939 29.6073 16.7314 36.4263 13.6672C35.5419 16.3659 34.1885 22.4196 38.4116 25.6569C37.6606 26.6182 36.561 27.4301 35.1154 28.0811C35.0407 28.1147 34.9735 28.1627 34.9174 28.2223C34.8613 28.2819 34.8175 28.3519 34.7885 28.4284C34.7595 28.505 34.7459 28.5865 34.7484 28.6683C34.7509 28.7501 34.7694 28.8306 34.8031 28.9052C34.8367 28.9798 34.8846 29.0471 34.9442 29.1031C35.0038 29.1592 35.0739 29.203 35.1504 29.232C35.2269 29.261 35.3084 29.2747 35.3902 29.2722C35.472 29.2697 35.5525 29.2511 35.6271 29.2175C38.4419 27.9501 40.1411 26.1077 40.6772 23.7413C40.6794 23.7319 40.6814 23.7228 40.6829 23.7128C40.7014 23.6112 41.0987 21.2009 38.6919 19.2894C38.5624 19.1866 38.3974 19.1395 38.2332 19.1583C38.069 19.1772 37.9189 19.2605 37.8161 19.39C37.7133 19.5194 37.6661 19.6844 37.685 19.8487C37.7038 20.0129 37.7872 20.1629 37.9166 20.2657C39.6716 21.6592 39.4794 23.3301 39.4574 23.4849C39.3692 23.8665 39.2402 24.2375 39.0725 24.5914C36.466 22.4913 36.534 18.8942 37.0576 16.2276C37.9496 16.3379 39.1359 16.5128 40.3394 16.7739C40.346 16.7755 40.3536 16.777 40.3605 16.7783C42.4453 17.2311 44.4365 18.0397 46.2467 19.1686C50.0234 21.5697 51.8585 24.9381 51.7012 29.1802C51.6547 30.3784 51.4417 31.5642 51.0685 32.7036C50.5886 32.5093 50.1216 32.2847 49.6702 32.0312C49.5261 31.9501 49.3557 31.9296 49.1964 31.9741C49.0372 32.0187 48.9022 32.1247 48.8211 32.2688C48.74 32.4129 48.7195 32.5834 48.7641 32.7426C48.8086 32.9018 48.9146 33.0368 49.0588 33.1179C53.085 35.3802 57.2526 35.045 59.236 34.6907C57.9429 37.792 56.0453 39.8971 53.5859 40.9555V40.9559Z" fill="#408F95"/>
</svg>

<svg width="61" height="55" fill="none" xmlns="http://www.w3.org/2000/svg"><path d="M60.054 33.23c-2.568.641-5.259.6-7.807-.117a14.17 14.17 0 00.701-3.886c.173-4.664-1.925-8.513-6.066-11.132a19.541 19.541 0 00-6.287-2.542 38.634 38.634 0 00-3.253-.546 17.33 17.33 0 01.728-2.185.624.624 0 00-.775-.839 16.819 16.819 0 00-7.587 5.367c-2.469.281-4.39 1.278-5.56 2.887a1.06 1.06 0 00-.013.02c-.123.183-2.828 4.132-7.552 3.655 1.573-1.463 4.422-4.694 5.13-9.407.935-6.22-.754-10.714-1.829-12.82 2.007.693 5.694 2.683 7.33 8.153.067.25.819 2.843 3.734 4.581a.624.624 0 00.638-1.07c-2.538-1.514-3.162-3.81-3.167-3.831a.408.408 0 00-.007-.026C25.886 1.03 18.96.13 18.666.095a.624.624 0 00-.578.983c.037.05 3.61 5.144 2.392 13.242-.89 5.93-5.629 9.431-5.676 9.466a.624.624 0 00.211 1.11 9.35 9.35 0 002.322.3c4.796 0 7.623-3.942 7.824-4.232.776-1.065 1.94-1.788 3.468-2.16a22.937 22.937 0 00-3.102 6.874 9.006 9.006 0 01-1.245 2.823 7.835 7.835 0 01-1.369 1.56 76.873 76.873 0 01-10.471-.693C3.678 28.434.387 33.106.251 33.306a.623.623 0 00-.08.539 24.523 24.523 0 004.71 8.497c2.269 3.974 6.643 7.146 9.923 9.11 3.679 2.205 8.97 3.457 12.208 3.457a23.914 23.914 0 0010.783-2.597c1.194.802 3.255 1.755 6.31 1.755a17.536 17.536 0 004.106-.519.623.623 0 00.222-1.108c-.015-.01-1.496-1.118-2.698-3.34a.623.623 0 10-1.096.594 13.192 13.192 0 002.102 2.887c-3.706.646-6.196-.135-7.671-.95 4.99-2.839 8.298-6.774 9.69-8.649.24.013.483.02.732.02 1.57.015 3.127-.291 4.575-.899 3.072-1.317 5.345-4.034 6.754-8.072a.623.623 0 00-.768-.802l.001.001zM27.011 53.664c-2.43 0-8.076-1.189-11.567-3.28-3.048-1.826-7.072-4.721-9.265-8.293 1.106-.898 4.932-3.288 11.22.184.138.074 3.467 1.834 8.46 2.674 4.554.766 11.38.857 18.178-2.982 1.055.407 2.151.698 3.27.867-2.65 3.373-9.712 10.83-20.296 10.83zm26.575-12.708c-4.433 1.907-9.285-.227-9.333-.249a.613.613 0 00-.57.03c-6.55 3.801-13.172 3.724-17.575 2.99-4.802-.8-8.09-2.534-8.115-2.547-4.333-2.393-7.634-2.186-9.64-1.59a8.596 8.596 0 00-2.906 1.49 24.135 24.135 0 01-3.986-7.302c.75-.886 3.864-3.912 10.836-3.173.56.084 9.866 1.433 17.73.177a.623.623 0 00-.198-1.23c-1.7.26-3.416.418-5.137.471.221-.264.429-.538.622-.823a10.254 10.254 0 001.42-3.213c.564-2.193 2.873-9.256 9.692-12.32-.884 2.699-2.238 8.753 1.986 11.99-.751.961-1.851 1.773-3.297 2.424a.623.623 0 10.512 1.137c2.815-1.268 4.514-3.11 5.05-5.477a.35.35 0 00.006-.028c.018-.102.416-2.512-1.991-4.424a.624.624 0 00-.775.977c1.755 1.393 1.562 3.064 1.54 3.219a5.45 5.45 0 01-.385 1.106c-2.606-2.1-2.538-5.697-2.014-8.363a37.608 37.608 0 013.303.55 18.573 18.573 0 015.886 2.39c3.776 2.402 5.611 5.77 5.454 10.012a12.93 12.93 0 01-.633 3.524c-.48-.195-.946-.42-1.398-.673a.624.624 0 00-.611 1.087c4.026 2.262 8.194 1.927 10.177 1.573-1.293 3.101-3.19 5.206-5.65 6.264z" fill="#408F95"/></svg>
